the-plus-addons-for-block-editor/assets/images/preloader/predefined-13.svg

<svg xmlns="http://www.w3.org/2000/svg" width="1000" height="700" fill="none" viewBox="0 0 1000 700"><path fill="#FCFCFF" d="M0 0h1000v700H0z"/><path fill="#D5D5D5" d="M361.246 322.445a154.982 154.982 0 0 1 24.201-56.508 154.986 154.986 0 0 1 101.627-64.753 154.996 154.996 0 0 1 61.441 1.94l-11.436 48.582a105.093 105.093 0 0 0-126.968 80.9l-48.865-10.161ZM664.754 385.555a154.982 154.982 0 0 1-24.201 56.508 154.986 154.986 0 0 1-101.627 64.753 154.996 154.996 0 0 1-61.441-1.94l11.436-48.582a105.093 105.093 0 0 0 126.968-80.9l48.865 10.161Z"/><circle cx="513" cy="354" r="66" fill="#888"/></svg>

<svg width="1000" height="700" viewBox="0 0 1000 700" fill="none" xmlns="http://www.w3.org/2000/svg">
<rect width="1000" height="700" fill="#FCFCFF"/>
<path d="M361.246 322.445C365.459 302.182 373.688 282.968 385.447 265.937C397.205 248.905 412.256 234.401 429.71 223.28C447.164 212.159 466.669 204.645 487.074 201.184C507.478 197.722 528.37 198.382 548.515 203.124L537.079 251.706C523.421 248.491 509.256 248.044 495.422 250.391C481.588 252.738 468.364 257.832 456.529 265.372C444.695 272.912 434.491 282.746 426.519 294.293C418.547 305.841 412.968 318.867 410.111 332.606L361.246 322.445Z" fill="#D5D5D5"/>
<path d="M664.754 385.555C660.541 405.818 652.312 425.032 640.553 442.063C628.795 459.095 613.744 473.599 596.29 484.72C578.836 495.841 559.331 503.355 538.926 506.816C518.522 510.278 497.63 509.618 477.485 504.876L488.921 456.294C502.579 459.509 516.744 459.956 530.578 457.609C544.412 455.262 557.637 450.168 569.471 442.628C581.305 435.088 591.509 425.254 599.481 413.707C607.453 402.159 613.032 389.132 615.889 375.394L664.754 385.555Z" fill="#D5D5D5"/>
<circle cx="513" cy="354" r="66" fill="#888888"/>
</svg>
